Obsidian/status/22s/qtox-busy.svg

<svg height="22" width="22" xmlns="http://www.w3.org/2000/svg"><path d="m11 10c2.209116.000055 3.999945 1.790884 4 4-.000055 2.209116-1.790884 3.999945-4 4-2.2091161-.000055-3.9999448-1.790884-4-4 .0000552-2.209116 1.7908839-3.999945 4-4zm0-5c1.1052 0 2 .8955 2 2 0 .4715-.102.8423-.236 1.1074-.133.2651-.426.6197-.764.8926-.33.2671-1 .6-1 .6s.303-.3643.428-.65c-.141.0313-.283.05-.428.05-1.1044.001-2-.8955-2-2s.8948-2 2-2zm0-2c-2.2089 0-4 1.7911-4 4v2h-2c-.5523351-.0001216-1.0001216.4476649-1 1v8c-.0001216.552335.4476649 1.000122 1 1h12c.552335.000122 1.000122-.447665 1-1v-8c.000122-.5523351-.447665-1.0001216-1-1h-2v-2c0-2.2089-1.791-4-4-4zm-3 10.000326v1.999674h6v-1.999674z" fill="#d3dae3"/></svg>

<svg xmlns="http://www.w3.org/2000/svg" width="22" height="22" version="1.1">
 <defs>
  <style id="current-color-scheme" type="text/css">
   .ColorScheme-Text { color:#d3dae3; } .ColorScheme-Highlight { color:#5294e2; }
  </style>
 </defs>
 <g>
  <path style="fill:currentColor" class="ColorScheme-Text" d="m 11,10 c 2.209116,5.5e-5 3.999945,1.790884 4,4 -5.5e-5,2.209116 -1.790884,3.999945 -4,4 -2.2091161,-5.5e-5 -3.9999448,-1.790884 -4,-4 5.52e-5,-2.209116 1.7908839,-3.999945 4,-4 z m 0,-5 c 1.1052,0 2,0.8955 2,2 0,0.4715 -0.102,0.8423 -0.236,1.1074 C 12.631,8.3725 12.338,8.7271 12,9 11.67,9.2671 11,9.6 11,9.6 11,9.6 11.303,9.2357 11.428,8.95 11.287,8.9813 11.145,9 11,9 9.8956,9.001 9,8.1045 9,7 9,5.8955 9.8948,5 11,5 Z M 11,3 C 8.7911,3 7,4.7911 7,7 L 7,9 5,9 C 4.4476649,8.9998784 3.9998784,9.4476649 4,10 l 0,8 c -1.216e-4,0.552335 0.4476649,1.000122 1,1 l 12,0 c 0.552335,1.22e-4 1.000122,-0.447665 1,-1 l 0,-8 C 18.000122,9.4476649 17.552335,8.9998784 17,9 L 15,9 15,7 C 15,4.7911 13.209,3 11,3 Z M 8,13.000326 8,15 l 6,0 0,-1.999674 -6,0 z"/>
 </g>
</svg>
